X:81
T:No.81 The Lancers
C:jig
M:6/8
L:1/8
K:D
faf fed|A3A2e|fgf fed|
e3e2f|gfg bag|fdf afd|
edef2e|d3d2e:|fBB fBB|
g=cc gcc|add add|bab bag|
fBB fBB|g=cc gcc|faf efe|d3d2e||
